svg/beer-11.svg

<?xml version="1.0" encoding="utf-8"?>
<!-- Generator: Adobe Illustrator 19.2.1, SVG Export Plug-In . SVG Version: 6.00 Build 0)  -->
<!DOCTYPE svg PUBLIC "-//W3C//DTD SVG 1.1//EN" "http://www.w3.org/Graphics/SVG/1.1/DTD/svg11.dtd">
<svg version="1.1" id="Layer_1" xmlns="http://www.w3.org/2000/svg" xmlns:xlink="http://www.w3.org/1999/xlink" x="0px" y="0px"
	 width="11px" height="11px" viewBox="0 0 11 11" style="enable-background:new 0 0 11 11;" xml:space="preserve">
<path d="M5.5,1c-2.3,0-3,0.66-3,0.66v2c0.0328,0.9197,0.2577,1.8223,0.66,2.65c0.376,0.9646,0.376,2.0354,0,3c0,0,0,0.66,2.32,0.66
	S7.8,9.31,7.8,9.31c-0.376-0.9646-0.376-2.0354,0-3c0.4023-0.8277,0.6272-1.7303,0.66-2.65v-2C8.46,1.66,7.8,1,5.5,1z M5.5,9.28
	C4.9736,9.3066,4.4465,9.2458,3.94,9.1c0.1326-0.4787,0.1999-0.9732,0.2-1.47h2.72c-0.0144,0.2198-0.0144,0.4402,0,0.66
	C6.8939,8.5635,6.9474,8.8342,7.02,9.1C6.5269,9.2448,6.0136,9.309,5.5,9.29V9.28z M7.82,3.28c-1.5116,0.4425-3.1184,0.4425-4.63,0
	L3.18,2c1.5151-0.4422,3.1249-0.4422,4.64,0c0,0,0.03,1.33,0,1.33L7.82,3.28z"/>
</svg>

<svg xmlns="http://www.w3.org/2000/svg" width="11" height="11">
    <path d="M5.5 1c-2.3 0-3 .66-3 .66v2a6.6 6.6 0 0 0 .66 2.65 4.13 4.13 0 0 1 0 3s0 .66 2.32.66 2.32-.66 2.32-.66a4.13 4.13 0 0 1 0-3 6.6 6.6 0 0 0 .66-2.65v-2S7.8 1 5.5 1zm0 8.28a4.77 4.77 0 0 1-1.56-.18c.133-.479.2-.973.2-1.47h2.72c-.014.22-.014.44 0 .66.034.274.087.544.16.81a4.77 4.77 0 0 1-1.52.19v-.01zm2.32-6a8.24 8.24 0 0 1-4.63 0L3.18 2a8.28 8.28 0 0 1 4.64 0s.03 1.33 0 1.33v-.05z"/>
</svg>
